**kern	**kern
*part1	*part1
*staff2	*staff1
*I"Piano	*
*clefF4	*clefG2
*k[b-]	*k[b-]
=1	=1
8EL	8ccL
8F	8dd
8G	8ee
8GGJ	8ddJ
=	=
.	16qqdd/
8CL	4cc
8GG	.
8EE	4cc
8CCJ	.
=	=
8AAL	4cc 4ff
8C	.
8GG	4b-X 4ee
8CJ	.
=	=
8AAL	8ccL 8ff
8FF	8aJ 8cc
8BB-	8fL 8dd
8GGJ	8gJ 8b-
=	=
.	8qqg/ 8qqb-
8CL	4f 4a
8CC	.
8C	4e 4g
8BB-J	.
=	=
8AAL	4c 4f 4cc
8C	.
8GG	4c 4e 4b-
8CJ	.
=	=
8FFL	4c 4f 4a
8C	.
8BB-	4c 4e 4g
8CJ	.
=	=
*-	*-
!!!system-decoration: {(s1,s2)}
